X: 41819
T: View Across The Valley, The
R: reel
M: 4/4
K: Dmajor
f2 ed BAFB|AF~F2 DEFA|f2 ed BAFA|Beed efge|
f2 ed BAFB|AF~F2 DEFA|fa~a2 bfaf|dBAG FDde:|
fa~a2 bfaf|d~B3 A~F3|AFAB defd|~e2 df ed (3Bcd|
fa~a2 bfaf|d~B3 A~F3|AFAB defe|dBAG FDde:|

